/* XPM */
static const char *closed_eye[] = {
/* columns rows colors chars-per-pixel */
"15 15 43 1 ",
"  c #111111",
". c #1D1D1D",
"X c #202020",
"o c #282828",
"O c #2C2C2C",
"+ c #303030",
"@ c #343434",
"# c #3A3A3A",
"$ c #3E3E3E",
"% c #424242",
"& c #444444",
"* c #4B4B4B",
"= c #4F4F4F",
"- c #565656",
"; c #5B5B5B",
": c #5D5D5D",
"> c #606060",
", c #727272",
"< c #7A7A7A",
"1 c #828282",
"2 c #868686",
"3 c #9A9A9A",
"4 c #9B9B9B",
"5 c #A2A2A2",
"6 c #AAAAAA",
"7 c #ACACAC",
"8 c #B0B0B0",
"9 c #B6B6B6",
"0 c #C6C6C6",
"q c #CACACA",
"w c #CDCDCD",
"e c #D1D1D1",
"r c #D6D6D6",
"t c #D9D9D9",
"y c #DDDDDD",
"u c #E1E1E1",
"i c #E5E5E5",
"p c #E8E8E8",
"a c #EFEFEF",
"s c #F3F3F3",
"d c #F4F4F4",
"f c #F8F8F8",
"g c #FFFFFF",
/* pixels */
"$rggggggggggggg",
"t+rgggggggggggg",
"gt+rgguragggggg",
"ggtO>O=:&+1aggg",
"gg0oX1@#+35+qgg",
"g7#i2 wgd:4u#8g",
"6%sg+e+rgd@gs$7",
"Oigf#gt+rg#fgiO",
"7$sg+dgt+w@ga$8",
"g8#u4;dge 2y@9g",
"ggq+54+#@2.owgg",
"ggga<+*-$+,Orgg",
"ggggggptdggt+rg",
"ggggggggggggt+r",
"gggggggggggggr$"
};
