/* XPM */
static const char *open_eye[] = {
/* columns rows colors chars-per-pixel */
"15 15 37 1 ",
"  c #2F2F2F",
". c #333333",
"X c #343434",
"o c #3A3A3A",
"O c #3F3F3F",
"+ c #424242",
"@ c #444444",
"# c #4B4B4B",
"$ c #4F4F4F",
"% c #565656",
"& c #5B5B5B",
"* c #5D5D5D",
"= c #727272",
"- c #7A7A7A",
"; c #808080",
": c #878787",
"> c #9A9A9A",
", c #9D9D9D",
"< c #A2A2A2",
"1 c #A9A9A9",
"2 c #ACACAC",
"3 c #B0B0B0",
"4 c #B6B6B6",
"5 c #C6C6C6",
"6 c #CACACA",
"7 c #CECECE",
"8 c #D3D3D3",
"9 c #DADADA",
"0 c #DDDDDD",
"q c #E1E1E1",
"w c #E5E5E5",
"e c #E8E8E8",
"r c #ECECEC",
"t c #F3F3F3",
"y c #F6F6F6",
"u c #F8F8F8",
"i c #FFFFFF",
/* pixels */
"iiiiiiiiiiiiiii",
"iiiiiiiiiiiiiii",
"iiiiiiq8riiiiii",
"iiir= $*@.;riii",
"ii5.1,Xo.><.6ii",
"i2ow,*yiy*,qo3i",
"1+ti.yiiiyXitO2",
" wiuoiiiiiouiw ",
"2Oti.yiiiyXirO3",
"i3oq,&yiy&,0X4i",
"ii6.<,.oX,>.7ii",
"iiir-.#%O.:tiii",
"iiiiiie9yiiiiii",
"iiiiiiiiiiiiiii",
"iiiiiiiiiiiiiii"
};
