/* XPM */
static char *shift_lock[] = {
/* columns rows colors chars-per-pixel */
"11 11 18 1 ",
"  c #000000",
". c #111111",
"X c #1B1B1B",
"o c #1F1F1F",
"O c #202020",
"+ c #2C2C2C",
"@ c #313131",
"# c #575757",
"$ c #626262",
"% c #D1D1D1",
"& c #D5D5D5",
"* c #E2E2E2",
"= c #E6E6E6",
"- c #EEEEEE",
"; c #F2F2F2",
": c #F5F5F5",
"> c #F8F8F8",
", c #FFFFFF",
/* pixels */
",,,,,>,,,,,",
",,,,&O%,,,,",
",,,=o X*,,,",
",,;@   +-,,",
",,#.   .#,,",
",,,,O O,,,,",
",,,,O O,,,,",
",,,,,,,,,,,",
",,-$$$$$-,,",
",,*     *,,",
",,,:::::,,,"
};
